Adwaita++-Dark/places/16/folder-linux.svg

<svg height="16" width="16" xmlns="http://www.w3.org/2000/svg">
  <path d="m8.1191406 1.015625c-.3606817-.0196729-.7468106-.01345-1.1601562.0195312-6.52970002.5256-4.7972313 7.4240751-4.8945313 9.7343748-.0862 1.2221-.4913331 2.716028-1.0644531 4.236328h1.7636719c.18137-.64425.3155168-1.281171.3730469-1.888671.1063899.0742.2203168.14413.3417968.21289.19767.11646.367005.271627.546875.435547.42032.38306.896755.818667 1.828125.873047.0625.004.12595.003906.1875.003906.94194 0 1.5858157-.412931 2.1035156-.74414.2480101-.15882.4624525-.295479.6640626-.361329.57299-.17937 1.0730656-.46929 1.4472652-.83789.0585-.0575.113233-.115491.164063-.175781.20844.76393.493797 1.622568.810547 2.480468h3.769531c-.90475-1.3976-1.837359-2.766372-1.818359-4.513672h-.001953c.035718-3.2387809.349678-9.1795155-5.0605474-9.474609zm.3339844 5.1152344c1.0137-.0275 1.858166 1.0081 1.884766 2.3125.012.58991-.146516 1.1334875-.416016 1.5546875-.0601-.0302-.12228-.0589375-.1875-.0859375-.30223-.12928-.5450637-.2170794-.7460938-.2871094.1109901-.21727.18118-.48703.1875-.78125v-.0019531c.0154-.71608-.3458406-1.2977281-.8066406-1.2988281-.46088-.001-.8478912.5789318-.8632812 1.2949218-.00052.0234-.0003.0471125 0 .0703125-.28385-.13054-.5626875-.2247731-.8359375-.2832031-.001-.0269-.0039063-.0549313-.0039063-.0820312-.0265-1.3045001.7732694-2.3846094 1.7871094-2.4121094zm-4.5527344.3613281c.73025-.0425 1.3745531.8374438 1.4394532 1.9648437.0029999.0608.0058593.1220607.0058593.1816407-.23138.0582-.4399131.1419344-.6269531.2402343-.00071-.0079999-.0009531-.0169906-.0019531-.0253906-.0625-.63993-.4043819-1.1238781-.7636719-1.0800781-.3593.0438-.5995694.5983313-.5371094 1.2382813v.0019531c.0272.27904.10699.5279568.21875.7167969-.0278.0219-.1067356.0783412-.1972656.1445312-.0679.0496-.15028.1101537-.25.183594-.27182-.3567803-.4589175-.8688459-.4921875-1.4472659-.0649-1.1274.4748281-2.0767406 1.2050781-2.1191406zm2.125 2.8574219c.52505 0 1.1056094.2036625 1.7246094.6015625.29154.1897101.5459475.2758091.8671875.3867191.22088.0763.4713506.16306.8066406.30664l.0039063.001953c.31278.12852.6828856.364083.6660156.751954-.026.595899-.8052006 1.155859-1.5253906 1.380859l-.0039063.001953c-.29939.0971-.5649762.266386-.8476562.447266-.47485.30379-.9665413.61914-1.6757813.61914-.0465 0-.093745-.000906-.140625-.003906-.64963-.038-.9551437-.315466-1.3398437-.666016-.20292-.18498-.4111207-.376486-.6816407-.535156l-.0058593-.001953c-.58387-.32955-.9475132-.740656-.9707031-1.097656-.0115001-.17746.0669649-.329548.234375-.455078.36417-.27303.6081212-.452243.7695312-.570313.17924-.13109.2333475-.170864.2734375-.208984.0286-.0272.06045-.057444.09375-.089844.33422-.32503.8935431-.8691406 1.7519531-.8691406zm-2.2265625 1.6464846c-.0999312.019252-.1923412.075055-.2539062.166015-.1231.18186-.0764313.429635.1054687.552735.47438.3211 1.3131531.559797 2.1894532.623047.1485599.0107.3126212.017578.4882812.017578.76264 0 1.7312781-.072718 2.7675781-.554688.19909-.0927.2859694-.328224.1933594-.527343-.0926-.199201-.3301569-.28584-.5292969-.19336-1.1203.52119-2.1615281.515374-2.8613281.464844-.8347-.0602-1.5056813-.288591-1.8007813-.488281-.09092-.06155-.1988968-.0798-.2988281-.060547z" fill="#e6ddff"/>
</svg>

<svg xmlns="http://www.w3.org/2000/svg" width="16" height="16">
 <defs>
  <style id="current-color-scheme" type="text/css">
   .ColorScheme-Text { color:#E6DDFF; } .ColorScheme-Highlight { color:#4285f4; }
  </style>
 </defs>
 <path style="fill:currentColor" class="ColorScheme-Text" d="M 8.1191406 1.015625 C 7.7584589 0.9959521 7.37233 1.002175 6.9589844 1.0351562 C 0.42928438 1.5607562 2.1617531 8.4592313 2.0644531 10.769531 C 1.9782531 11.991631 1.57312 13.485559 1 15.005859 L 2.7636719 15.005859 C 2.9450419 14.361609 3.0791887 13.724688 3.1367188 13.117188 C 3.2431087 13.191388 3.3570356 13.261318 3.4785156 13.330078 C 3.6761856 13.446538 3.8455206 13.601705 4.0253906 13.765625 C 4.4457106 14.148685 4.9221456 14.584292 5.8535156 14.638672 C 5.9160156 14.642672 5.9794656 14.642578 6.0410156 14.642578 C 6.9829556 14.642578 7.6268313 14.229647 8.1445312 13.898438 C 8.3925413 13.739618 8.6069837 13.602959 8.8085938 13.537109 C 9.3815838 13.357739 9.8816594 13.067819 10.255859 12.699219 C 10.314359 12.641719 10.369092 12.583728 10.419922 12.523438 C 10.628362 13.287368 10.913719 14.146006 11.230469 15.003906 L 15 15.003906 C 14.09525 13.606306 13.162641 12.237534 13.181641 10.490234 L 13.179688 10.490234 C 13.215406 7.2514531 13.529366 1.3107185 8.1191406 1.015625 z M 8.453125 6.1308594 C 9.466825 6.1033594 10.311291 7.1389594 10.337891 8.4433594 C 10.349891 9.0332694 10.191375 9.5768469 9.921875 9.9980469 C 9.861775 9.9678469 9.799595 9.9391094 9.734375 9.9121094 C 9.432145 9.7828294 9.1893113 9.69503 8.9882812 9.625 C 9.0992713 9.40773 9.1694612 9.13797 9.1757812 8.84375 L 9.1757812 8.8417969 C 9.1911812 8.1257169 8.8299406 7.5440688 8.3691406 7.5429688 C 7.9082606 7.5419688 7.5212494 8.1219006 7.5058594 8.8378906 C 7.5053394 8.8612906 7.5055594 8.8850031 7.5058594 8.9082031 C 7.2220094 8.7776631 6.9431719 8.68343 6.6699219 8.625 C 6.6689219 8.5981 6.6660156 8.5700687 6.6660156 8.5429688 C 6.6395156 7.2384687 7.439285 6.1583594 8.453125 6.1308594 z M 3.9003906 6.4921875 C 4.6306406 6.4496875 5.2749437 7.3296313 5.3398438 8.4570312 C 5.3428437 8.5178312 5.3457031 8.5790919 5.3457031 8.6386719 C 5.1143231 8.6968719 4.90579 8.7806063 4.71875 8.8789062 C 4.71804 8.8709063 4.7177969 8.8619156 4.7167969 8.8535156 C 4.6542969 8.2135856 4.312415 7.7296375 3.953125 7.7734375 C 3.593825 7.8172375 3.3535556 8.3717688 3.4160156 9.0117188 C 3.4160156 9.0117188 3.4160156 9.0136719 3.4160156 9.0136719 C 3.4432156 9.2927119 3.5230056 9.5416287 3.6347656 9.7304688 C 3.6069656 9.7523688 3.52803 9.80881 3.4375 9.875 C 3.3696 9.9246 3.28722 9.9851537 3.1875 10.058594 C 2.91568 9.7018137 2.7285825 9.1897481 2.6953125 8.6113281 C 2.6304125 7.4839281 3.1701406 6.5345875 3.9003906 6.4921875 z M 6.0253906 9.3496094 C 6.5504406 9.3496094 7.131 9.5532719 7.75 9.9511719 C 8.04154 10.140882 8.2959475 10.226981 8.6171875 10.337891 C 8.8380675 10.414191 9.0885381 10.500951 9.4238281 10.644531 L 9.4277344 10.646484 C 9.7405144 10.775004 10.11062 11.010567 10.09375 11.398438 C 10.06775 11.994337 9.2885494 12.554297 8.5683594 12.779297 L 8.5644531 12.78125 C 8.2650631 12.87835 7.9994769 13.047636 7.7167969 13.228516 C 7.2419469 13.532306 6.7502556 13.847656 6.0410156 13.847656 C 5.9945156 13.847656 5.9472706 13.84675 5.9003906 13.84375 C 5.2507606 13.80575 4.9452469 13.528284 4.5605469 13.177734 C 4.3576269 12.992754 4.1494262 12.801248 3.8789062 12.642578 L 3.8730469 12.640625 C 3.2891769 12.311075 2.9255337 11.899969 2.9023438 11.542969 C 2.8908437 11.365509 2.9693087 11.213421 3.1367188 11.087891 C 3.5008888 10.814861 3.74484 10.635648 3.90625 10.517578 C 4.08549 10.386488 4.1395975 10.346714 4.1796875 10.308594 C 4.2082875 10.281394 4.2401375 10.25115 4.2734375 10.21875 C 4.6076575 9.89372 5.1669806 9.3496094 6.0253906 9.3496094 z M 3.7988281 10.996094 C 3.6988969 11.015346 3.6064869 11.071149 3.5449219 11.162109 C 3.4218219 11.343969 3.4684906 11.591744 3.6503906 11.714844 C 4.1247706 12.035944 4.9635437 12.274641 5.8398438 12.337891 C 5.9884037 12.348591 6.152465 12.355469 6.328125 12.355469 C 7.090765 12.355469 8.0594031 12.282751 9.0957031 11.800781 C 9.2947931 11.708081 9.3816725 11.472557 9.2890625 11.273438 C 9.1964625 11.074237 8.9589056 10.987598 8.7597656 11.080078 C 7.6394656 11.601268 6.5982375 11.595452 5.8984375 11.544922 C 5.0637375 11.484722 4.3927562 11.256331 4.0976562 11.056641 C 4.0067362 10.995091 3.8987594 10.976841 3.7988281 10.996094 z"/>
</svg>
